X:00001
T:Dewdrops In the Corn
C:after Mr. Bill Reeder
C: From the IrTrad Mail List
N:Collected from Listmail 8-13-03 (Name and variation from Roger Landes)
N:Also known as &quot;Australian Waters&quot;
N: Subscribe at http://www.lsoft.com/scripts/wl.exeSL1=IRTRAD-L&amp;H=LISTSERV.HEANET.IE
M:6/8
L:1/8
K:D
A|d2D FED|=c3 ed^c|d=cA GEA|~D3 efe|
d2D FED|=c3 ed^c|d=cA GEA|~D3 D2:||
A|~d3 efg|fed =cAG|~d3 efg|fdc def|
gbg faf|ecA ABc|d=cA GEA|~D3 D2A|
~d3 efg|fed =cAG|~d3 efg|fdc def|
gAA fAA|ecA ABc|d=cA GEA|~D3 D2||
&quot;^ALT&quot;A|d2D FED|=c3 ed^c|d=cA GEA|~D3 efe|
d2D FED|=c3 ed^c|d=cA GEA|~D3 D2:||
dB/c/d efg|fed =cAG|dB/c/d efg|fed def|
gbg afa|e^cA ABc|d^cA GEA|DD/D/DD2 A:||
